svgs/duotone/square-chevron-up.svg

<svg xmlns="http://www.w3.org/2000/svg" viewBox="0 0 448 512"><!-- Font Awesome Pro 6.0.0-alpha2 by @fontawesome - https://fontawesome.com License - https://fontawesome.com/license (Commercial License) --><defs><style>.fa-secondary{opacity:.4}</style></defs><path d="M384 32H64C28.656 32 0 60.656 0 96V416C0 451.348 28.656 480 64 480H384C419.344 480 448 451.348 448 416V96C448 60.656 419.344 32 384 32ZM358.625 326.625C346.125 339.125 325.875 339.125 313.375 326.625L224 237.25L134.625 326.625C122.125 339.125 101.875 339.125 89.375 326.625S76.875 293.875 89.375 281.375L201.375 169.375C207.625 163.125 215.812 160 224 160S240.375 163.125 246.625 169.375L358.625 281.375C371.125 293.875 371.125 314.125 358.625 326.625Z" class="fa-secondary"/><path d="M358.625 326.625C346.125 339.125 325.875 339.125 313.375 326.625L224 237.25L134.625 326.625C122.125 339.125 101.875 339.125 89.375 326.625S76.875 293.875 89.375 281.375L201.375 169.375C207.625 163.125 215.813 160 224 160S240.375 163.125 246.625 169.375L358.625 281.375C371.125 293.875 371.125 314.125 358.625 326.625Z" class="fa-primary"/></svg>

<svg xmlns="http://www.w3.org/2000/svg" viewBox="0 0 448 512"><!--! Font Awesome Pro 6.0.0-alpha3 by @fontawesome - https://fontawesome.com License - https://fontawesome.com/license (Commercial License) --><defs><style>.fa-secondary{opacity:.4}</style></defs><path class="fa-primary" d="M358.6 326.6c-12.5 12.5-32.75 12.5-45.25 0L224 237.3l-89.38 89.38c-12.5 12.5-32.75 12.5-45.25 0s-12.5-32.75 0-45.25l112-112C207.6 163.1 215.8 160 224 160s16.38 3.125 22.62 9.375l112 112C371.1 293.9 371.1 314.1 358.6 326.6z"/><path class="fa-secondary" d="M384 32H64C28.66 32 0 60.66 0 96v320c0 35.35 28.66 64 64 64h320c35.34 0 64-28.65 64-64V96C448 60.66 419.3 32 384 32zM358.6 326.6c-12.5 12.5-32.75 12.5-45.25 0L224 237.3l-89.38 89.38c-12.5 12.5-32.75 12.5-45.25 0s-12.5-32.75 0-45.25l112-112C207.6 163.1 215.8 160 224 160s16.38 3.125 22.62 9.375l112 112C371.1 293.9 371.1 314.1 358.6 326.6z"/></svg>
